X:1
T:Title
%%score { ( 1 3 ) | ( 2 4 ) }
L:1/8
Q:1/4=100
M:4/4
K:Eb
V:1 treble nm="Grand Piano"
V:3 treble 
V:2 bass 
V:4 bass 
V:1
 G>F E>F G2 F2 | E2 c2 B2 c2 | B4 z4 | B4 G4 | G>F E>F G2 F2 | E2 c2 B2 G2 | F d3 F2 c2 | B8 | %8
w: Russel~Hancock~Miles * * * * *||||||||
 B2 [GB]2 [GB]>[Ac] [GB]>[FA] | [B,EG]2 [B,EG]6 | [B,EG]2 [B,EG]2 [B,EG]>[CEA] [B,DG]>[A,DF] | %11
w: |||
 [G,B,E]6 [A,B,D]>[G,B,E] | [A,DF]2 [A,DF]2 [A,DF]>[G,_D=E] [A,=DF]>[Dc] | B2 G4 G2 | F d3 F2 c2 | %15
w: ||||
 B8 | B2 [GB]2 [GB]>[Ac] [GB]>[FA] | [B,EG]2 [B,EG]6 | [B,EG]2 [B,EG]2 [B,EG]>[CEA] [B,DG]>[A,DF] | %19
w: ||||
 [G,B,E]4 [G,B,E]4 | [A,EA]2 [A,EA]4 [E=A]2 | [EB]2 [EB]4 [Ec]2 | [EB] [EB]3 [Ac]2 [Ad]2 | e6 z2 |] %24
w: |||||
V:2
 [E,B,E]>[E,A,E] [E,G,]>[E,A,E] [E,B,E]2 [E,A,E]2 | [E,G,]2 [E,A,E]2 [E,G,E]2 z2 | %2
 z2 [B,,F,]2 [B,,A,]2 [B,,F,]2 | z2 [E,G,]2 [E,B,E]2 [E,B,]2 | %4
 [E,B,E]>[E,A,E] [E,G,]>[E,A,E] [E,B,E]2 [E,A,E]2 | [E,G,]2 [E,A,E]2 [E,G,E]2 [=E,B,_D]2 | %6
 [F,B,D] [F,B,F]3 [F,=A,E]2 [F,A,E]2 | z2 G,2 A,2 F,2 | [E,G,E]2 [E,B,]2 [E,E]>[E,E] [E,E]>[E,E] | %9
 E,2 E,2 B,,2 E,2 | E,2 E,2 B,,>B,, B,,>B,, | E,6 F,>E, | B,,2 B,,2 B,,>B,, B,,>[B,,A,] | %13
 [E,G,E]2 [E,B,E]4 [=E,B,_D]2 | [F,B,D] [F,B,F]3 [F,=A,E]2 [F,A,E]2 | F,2 C2 B,2 A,2 | %16
 [E,G,E]2 [E,B,]2 [E,E]>[E,E] [E,E]>[E,E] | E,2 E,2 B,,2 E,2 | E,2 E,2 B,,>B,, B,,>B,, | E,4 _D,4 | %20
 C,2 C,4 [=B,,_G,]2 | [B,,G,]2 [B,,G,]4 [A,,A,]2 | [B,,G,] [B,,G,]3 [B,,B,]2 [B,,B,]2 | %23
 B,2 C>=A, B,2 z2 |] %24
V:3
 x8 | x8 | z2 D2 [DF]2 [Dc]2 | z2 E2 z2 E2 | x8 | x8 | x8 | [B,D]2 E2 F2 D2 | x8 | x8 | x8 | x8 | %12
 x8 | x8 | x8 | D2 A2 G2 F2 | x8 | x8 | x8 | x8 | x8 | x8 | x8 | G2 A>_G =G2 z2 |] %24
V:4
 x8 | x8 | x8 | x8 | x8 | x8 | x8 | B,,8 | x8 | x8 | x8 | x8 | x8 | x8 | x8 | B,,8 | x8 | x8 | x8 | %19
 x8 | x8 | x8 | x8 | E,6 z2 |] %24

